X:1
T:Bright, Bright in Silver Light
T:Bright, Bright in Silver Light
T:Mrs. T. I. Holcombe, 1871
T:Anonymous, before 1863
T:Public Domain Courtesy of the Cyber Hymnal™
C:Mrs. T. I. Holcombe, 1871
Z:Public Domain
Z:Courtesy of the Cyber Hymnal™
%%score 1 2
L:1/8
Q:1/4=117
M:2/2
K:C
V:1 treble 
V:2 bass 
V:1
 [Ec]4 [Ge]3 [Fd] | [Ec]2 [FA]2 [EG]2 [EG]2 | [FA]2 [GB]2 [Ac]2 [FA]2 | [FA]4 [EG]2 [EG]2 | %4
w: 1.~Bright, bright, in|sil- ver light, The|morn- ing stars were|shin- ing; And|
w: 2.~Clear, clear, so|ve- ry near, A|burst of mu- sic|sound- ing; That|
w: 3.~Loud, loud, the|cho- rus grew, Till|all the air was|swell- ing; And|
w: 4.~Joy! Joy! Your|Lord is born! The|heav- en- ly voice|was saying While|
w: 5.~Peace, peace, on|earth be peace, Good|will to bro- thers|greet- ing; A-|
w: 6.~Praise, praise, to|God be praise, And|glo- ry in the|high- est; All|
w: 7.~Praise, praise, the|Spir- it praise, The|ho- ly Dove des-|cend- ing; Who,|
 ([EG]2 [DF]2) ([B,D]2 [FA]2) | ([FA]2 [EG]2) ([CE]2 [EG]2) | ([EG]2 [DF]2) ([FA]2 [DF]2) | %7
w: shep- * herds *|watch- * ing *|o’er * their *|
w: flocks * and *|shep- * herds *|rose * at *|
w: from * the *|hea- * vens *|came * a *|
w: kneel- * ing *|on * the *|fros- * ty *|
w: rise, * and *|has- * ten *|to * the *|
w: praise * to *|Thee, * O *|new- * born *|
w: with * the *|Fa- * ther *|and * the *|
 [CE]4 z2 [EG]2 | ([FA]3 [GB]) ([Ec]3 [Fd]) | [Ge]6 [EG]2 | ([FA]3 [GB] [Ec]3 [Fd]) | [Ge]6 [Ge]2 | %12
w: flocks, Were|on * their *|staves re-|clin- * * *|ing, Were|
w: once, With|swell- * ing *|hearts re-|bound- * * *|ing, With|
w: voice, That|heav’n- * ly *|news was|tell- * * *|ing, That|
w: ground, The|shep- * herds *|all were|pray- * * *|ing, The|
w: Babe, Fast|in * the *|sta- ble|sleep- * * *|ing, Fast|
w: Babe, Who|in * the *|man- ger|li- * * *|est, Who|
w: Son, Shall|reign * through *|days un-|end- * * *|ing, Shall|
 ([Ge]2 [Fd]2) ([Af]2 [Fd]2) | ([Fd]2 [Ec]2) ([DB]2 [Ec]2) | ([Ge]2 [Fd]2 [Ec]2 [DB]2) | [Ec]8 |] %16
w: on * their *|staves * re- *|clin- * * *|ing.|
w: swell- * ing *|hearts * re- *|bound- * * *|ing.|
w: heav’n- * ly *|news * was *|tell- * * *|ing.|
w: shep- * herds *|all * were *|pray- * * *|ing.|
w: in * the *|sta- * ble *|sleep- * * *|ing.|
w: in * the *|man- * ger *|li- * * *|est.|
w: reign * through *|days * un- *|end- * * *|ing.|
V:2
 [C,,C,]4 [C,,C,]4 | [C,,C,]2 [F,C]2 [C,C]2 [C,C]2 | [F,,F,]4 [F,,F,]4 | %3
 [F,,F,]4 [C,,C,]2 [C,,C,]2 | [G,,G,]4 [G,,G,]4 | [C,,C,]4 [C,,C,]4 | [G,,G,]4 [G,,G,]4 | %7
 [C,,C,]4 z2 [C,,C,]2 | F,4 (E,2 D,2) | [C,C]4 [C,C]4 | (F,4 E,2 D,2) | [C,C]6 [C,C]2 | %12
 [F,,F,]4 [F,,F,]4 | [G,,G,]4 [G,,G,]4 | ([G,,G,]4 [G,,G,]4) | [C,,C,]8 |] %16

